X:6
T:Mrs. MacLeod of Raasay
R:Reel
L:1/8
C:Trad.
M:C|
L:1/8
K:D
[| {g}A2 {ag}a2 {fg}fe{g}fa | c{g}c{G}cB c{g}c{G}cB | {g}A2 {ag}a2 {fg}fe{g}fa | B{g}B{G}BA {g}BdcB |
 {g}A2 {ag}a2 {fg}fe{g}fa | c{g}c{G}cB {g}cdec | {g}f3 e {g}fe{g}fg | afec {g}Bd{g}cB  ||
{g}A3 {d}c {g}eA{d}ca | c{g}c{G}cB c{g}c{G}cB | {g}A3 {d}c {g}eA{d}ca | B{g}B{G}BA {g}BdcB |
{g}A3 {d}c {g}eA{d}ca | c{g}c{G}cB {g}c2 | {e}(A8 | A6) {g}e2 |
 f2 {g}f2 {e} fe{g}fg | afec {g}Bd{g}cB | A4 |] 